src/pos-icons/check-underline.svg

<svg height="24" viewBox="0 0 24 24" width="24" xmlns="http://www.w3.org/2000/svg"><path d="m21 5-12 12-5.5-5.5 1.41-1.41 4.09 4.08 10.59-10.58zm-18 16v-2h18v2z"/></svg>

<?xml version="1.0" encoding="UTF-8"?><!DOCTYPE svg PUBLIC "-//W3C//DTD SVG 1.1//EN" "http://www.w3.org/Graphics/SVG/1.1/DTD/svg11.dtd"><svg xmlns="http://www.w3.org/2000/svg" xmlns:xlink="http://www.w3.org/1999/xlink" version="1.1" id="mdi-check-underline" width="24" height="24" viewBox="0 0 24 24"><path d="M21,5L9,17L3.5,11.5L4.91,10.09L9,14.17L19.59,3.59L21,5M3,21V19H21V21H3Z" /></svg>
